X:1
T:Title
%%score { ( 1 3 ) | 2 }
L:1/8
M:4/4
K:G
V:1 treble nm="Grand Piano"
V:3 treble 
V:2 bass 
V:1
 z4 z2[Q:1/4=106] [B,D][B,D] | [B,D]2 [B,D]2 [B,D]2 [B,D]2 | [CE]2 [EG]2 [EG]2 [EA]2 | %3
 B2 d2 d2 B2 |[M:3/4] [FA]6 |[M:1/4] [FA][GB] |[M:4/4] [Ac]2 [Ac]2 [GB]2 [FA]2 | %7
 [DGB]2 [B,DG]2 [B,DG]2 [B,EG]2 | [A,DF]3 [B,DG] [A,DF]2[K:bass] [G,^CE]2 | [F,D]6[K:treble] EF | %10
 G6 z2 | z2 G6 | B6 z2 |[M:3/4] d2 z2 G2 |[M:1/4] dd |[M:4/4] [CEc]2 [DEB]2 [CEA]2 [G,EG]2 | %16
 [A,^DF]2 [DA]2 [EG]2 EE | %17
 D [Dd]3 [CA] [DB]3[Q:1/4=104][Q:1/4=103][Q:1/4=101][Q:1/4=100][Q:1/4=98][Q:1/4=97][Q:1/4=95][Q:1/4=94][Q:1/4=92][Q:1/4=90][Q:1/4=89][Q:1/4=87][Q:1/4=86][Q:1/4=84][Q:1/4=83][Q:1/4=81] | %18
[M:3/4] [B,G]6 |] %19
V:2
 z4 z2 [G,,G,][G,,G,] | [G,,G,]2 [G,,G,]2 [G,,G,]2 [G,,G,]2 | [C,G,]2 [C,G,]2 [C,G,]2 [C,G,]2 | %3
 [G,D]2 [G,B,G]2 [G,B,G]2 [G,DG]2 |[M:3/4][K:bass] [D,D]6 |[M:1/4] [D,D][D,D] | %6
[M:4/4] [D,D]2 [D,D]2 [D,D]2 [D,D]2 | G,2 G,2 G,,2 G,,2 | A,,3 A,, A,,2 A,,2 | D,6 ^C=C | %10
 [G,B,D]2 [G,B,]2 [G,B,]2 [G,B,]2 | [G,DG]2 [G,B,D]2 [G,B,]2 [G,B,]2 | %12
 [G,DG]2 [G,D]2 [G,D]2 [G,B,]2 |[M:3/4] [G,B,G]2 [G,DG]2 [G,D]2 |[M:1/4] [G,B,=F][G,B,F] | %15
[M:4/4][K:bass] C,2 C,2 C,2 C,2 | C,2 [C,F,]2 [C,G,]2 [C,G,C][C,G,C] | %17
 [B,,G,] [B,,G,]3 [D,F,] [D,F,]3 |[M:3/4] [G,,G,]6 |] %19
V:3
 x8 | x8 | x8 | x8 |[M:3/4] x6 |[M:1/4] x2 |[M:4/4] x8 | x8 | x6[K:bass] x2 | x6[K:treble] x2 | %10
 z2 D2 D2 D2 | B2 z2 D2 D2 | z2 G2 G2 G2 |[M:3/4] z2 B4 |[M:1/4] x2 |[M:4/4] x8 | x8 | x8 | %18
[M:3/4] x6 |] %19

